X: 1176
T: İçimde Bir Dertli Bülbül
C: Âmir Ateş
O: Turkey
F: http://compmusic.upf.edu/node/140
N: hicaz--ilahi--duyek--icimde_bir--amir_ates
N: makam= hicaz
N: form= ilahi
N: usul= duyek = 8/4
M: 8/4
L: 1/16
K: C _7/8B ^f ^c 
Q: 1/4=168
%%MIDI tuningsystem comma53
A2 A4 A2 B4 c4  | d2 c2 B2 A2 A8  | G2 d6 d2 c2 d4  | \
w:  İ çim de  bir  dert  |  li  bül *  *  bül   |  ö ter  Yu *  nus   | 
=f2 e2 d4 c2 d6  | A2 A4 A2 B4 c4  | 
w:  Yu *  nus  di ye    |  İ çim de  bir  dert  | 
d2 c2 B2 A2 A8  | G2 d6 d2 c2 d4  | =f2 e2 d4 c2 d6  | \
w:  li  bül *  *  bül   |  ö ter  Yu *  nus   |  Yu *  nus  di ye    | 
a4 g4 f6 a2  | g4 =f4 e4 g4  | 
w:  Söz  bah çem de   |  her  gün  bir  gül   | 
=f2 e2 d2 c2 B2 A2 B4  | A4 ^G4 B2 A6  | \
w:  bi ter  *  *  Yu *  nus   |  Yu nus  di ye    | 
a4 g4 f6 a2  | g4 =f4 e4 g4  | =f2 e2 d2 c2 B2 A2 B4  | 
w:  Söz  bah çem de   |  her  gün  bir  gül   |  bi ter  *  *  Yu *  nus   | 
A4 ^G4 B2 A6  | B2 A8-A2 z4  | c2 B8-B2 z4  | \
w:  Yu nus  di ye    |  Yu nus   |  Yu nus   | 
A4 A8 B4  | ^G2 A8-A2 z4  | B2 A8-A2 z4  | 
w:  Yu nus   |  Yu nus   |  Yu nus   | 
c2 B8-B2 z4  | A4 A8 B4  | ^G2 A8-A2 z4  | \
w:  Yu nus   |  Yu nus   |  Yu nus   | 
d4 f4 f4 f4  | f/g/f/e/ f2 f2 g2 f2 ^e2 d2 e/d/e/f/  | 
w:  Gün düz  bir  dert   |  SAZ *  *  *  *  ge ce  bir  *  dert  SAZ  | 
g4 g2 g2 g2 g2 ^2/4f2 e2  | =f4 f2 e2 d2 c2 d4  | \
w:  *  bi le me dim   |  ah  ni ce  bir  *  dert    | 
d4 f4 f4 f4  | f/g/f/e/ f2 f2 g2 f2 ^e2 d2 e/d/e/f/  | 
w:  Gün düz  bir  dert   |  SAZ *  *  *  *  ge ce  bir  *  dert  SAZ  | 
g4 g2 g2 g2 g2 ^2/4f2 e2  | =f4 f2 e2 d2 c2 d4  | \
w:  *  bi le me dim   |  ah  ni ce  bir  *  dert    | 
a4 g4 f2 a6  | z2 g4 =f2 e4 g4  | 
w:  Sol  böğ rü me   |  in ce  bir  dert   | 
=f2 e2 d2 c2 B2 A2 B4  | A4 ^G4 B2 A6  | \
w:  ba tar  *  *  Yu *  nus   |  Yu nus  di ye    | 
a4 g4 f2 a6  | z2 g4 =f2 e4 g4  | =f2 e2 d2 c2 B2 A2 B4  | 
w:  Sol  böğ rü me   |  in ce  bir  dert   |  ba tar  *  *  Yu *  nus   | 
A4 ^G4 B2 A6  | B2 A8-A2 z4  | c2 B6 B4 z4  | \
w:  Yu nus  di ye    |  Yu nus   |  Yu nus   | 
A4 A8 B4  | ^G2 A8-A2 z4  | B2 A8-A2 z4  | 
w:  Yu nus   |  Yu nus    |  Yu nus   | 
c2 B6 B4 z4  | A4 A8 B4  | ^G2 A8-A2 z4  | \
w:  Yu nus   |  Yu nus   |  Yu nus    | 
d4 a4 ^g4 a4  | e2 g2 =f2 e2 d2 c2 d4  | 
w:  Ey  dost  ar tık   |  ne  der *  *  sen  *  de   | 
d4 a4 a2 a6  | b2 d'2 c'2 b2 a2 ^g2 a4  | \
w:  gel dim  bu  der  |  gâ *  ha  *  ben  *  de    | 
d4 a4 ^g4 a4  | e2 g2 =f2 e2 d2 c2 d4  | 
w:  Ey  dost  ar tık   |  ne  der *  *  sen  *  de   | 
d4 a4 a2 a6  | b2 d'2 c'2 b2 a2 ^g2 a4  | \
w:  gel dim  bu  der  |  gâ *  ha  *  ben  *  de    | 
z2 a4 g2 f4 a4  | z2 g4 =f2 e4 g4  | 
w:  Şol  ba şak lar   |  yel  e sen de   | 
=f2 e2 d2 c2 B2 A2 B4  | A4 ^G4 B2 A6  | \
w:  ya tar  *  *  Yu *  nus   |  Yu nus  di ye    | 
z2 a4 g2 f4 a4  | z2 g4 =f2 e4 g4  | 
w:  Şol  ba şak lar   |  yel  e sen de   | 
=f2 e2 d2 c2 B2 A2 B4  | A4 ^G4 B2 A6  | \
w:  ya tar  *  *  Yu *  nus   |  Yu nus  di ye    | 
B2 A6 A4 z4  | c2 B8-B2 z4  | A4 A8 B4  | 
w:  Yu nus   |  Yu nus   |  Yu nus   | 
^G2 A6 A4 z4  | B2 A6 A4 z4  | c2 B8-B2 z4  | \
w:  Yu nus    |  Yu nus   |  Yu nus   | 
A4 A8 B4  | ^G2 A6 A4 z4  | |


